dist/images/icons/close.svg

<svg width="24" height="20" viewBox="0 0 24 20" fill="none" xmlns="http://www.w3.org/2000/svg">
<path d="M18.7826 9.56522C17.5072 9.68116 16.4638 10.1739 15.6522 11.0435C14.8406 11.913 14.4348 13.0145 14.4348 14.3478C14.4348 15.7971 14.8696 16.9855 15.7391 17.913C16.6087 18.7826 17.7101 19.2174 19.0435 19.2174C20.5507 19.2174 21.7681 18.6667 22.6957 17.5652C23.5652 16.4638 24 14.7536 24 12.4348C24 7.97101 22.5217 4.11594 19.5652 0.869564C18.9855 0.289855 18.3188 0 17.5652 0C16.9275 0 16.3768 0.231884 15.913 0.695653C15.4493 1.10145 15.2174 1.5942 15.2174 2.17391C15.2174 2.81159 15.4493 3.36232 15.913 3.82609C17.4203 5.3913 18.3768 7.30435 18.7826 9.56522ZM4.34783 9.56522C3.07247 9.68116 2.02899 10.1739 1.2174 11.0435C0.405802 11.913 1.90735e-06 13.0145 1.90735e-06 14.3478C1.90735e-06 15.7971 0.434786 16.9855 1.30435 17.913C2.17392 18.7826 3.27536 19.2174 4.6087 19.2174C6.11594 19.2174 7.33333 18.6667 8.26087 17.5652C9.13044 16.4638 9.56522 14.7536 9.56522 12.4348C9.56522 7.97101 8.08696 4.11594 5.13044 0.869564C4.55073 0.289855 3.88406 0 3.13044 0C2.49276 0 1.94203 0.231884 1.47826 0.695653C1.0145 1.10145 0.782612 1.5942 0.782612 2.17391C0.782612 2.81159 1.0145 3.36232 1.47826 3.82609C2.98551 5.3913 3.94203 7.30435 4.34783 9.56522Z" fill="#C2C2C2"/>
</svg>

<svg width="24" height="20" fill="none" xmlns="http://www.w3.org/2000/svg"><path d="M18.783 9.565c-1.276.116-2.32.609-3.13 1.479-.812.869-1.218 1.97-1.218 3.304 0 1.45.435 2.637 1.304 3.565.87.87 1.971 1.304 3.305 1.304 1.507 0 2.724-.55 3.652-1.652.87-1.101 1.304-2.811 1.304-5.13C24 7.97 22.522 4.115 19.565.87c-.58-.58-1.246-.87-2-.87-.638 0-1.188.232-1.652.696-.464.405-.696.898-.696 1.478 0 .638.232 1.188.696 1.652 1.507 1.565 2.464 3.478 2.87 5.74zm-14.435 0c-1.276.116-2.319.609-3.13 1.479C.405 11.912 0 13.014 0 14.348c0 1.45.435 2.637 1.304 3.565.87.87 1.971 1.304 3.305 1.304 1.507 0 2.724-.55 3.652-1.652.87-1.101 1.304-2.811 1.304-5.13C9.565 7.97 8.087 4.115 5.13.87 4.55.29 3.884 0 3.13 0c-.637 0-1.188.232-1.652.696-.464.405-.695.898-.695 1.478 0 .638.231 1.188.695 1.652 1.508 1.565 2.464 3.478 2.87 5.74z" fill="#C2C2C2"/></svg>
